icons/lines/tag-cross.svg

<svg xmlns="http://www.w3.org/2000/svg" width="24" height="24" viewBox="0 0 24 24" fill="none" stroke="currentColor" stroke-width="2" stroke-linecap="round" stroke-linejoin="round" >
  <path d="M10.2797 20.25H16.9997C19.7597 20.25 21.9997 18.01 21.9997 15.25V8.75C21.9997 5.99 19.7597 3.75 16.9997 3.75H10.2797C8.86969 3.75 7.52969 4.34 6.57969 5.39L3.04969 9.27C1.63969 10.82 1.63969 13.18 3.04969 14.73L6.57969 18.61C7.52969 19.66 8.86969 20.25 10.2797 20.25Z"/>
  <path d="M15.9996 14.47L11.0596 9.53003"/>
  <path d="M11.0596 14.47L15.9996 9.53003"/>
  </svg>

<svg xmlns="http://www.w3.org/2000/svg" width="24" height="24" viewBox="0 0 24 24" fill="none" stroke="currentColor" stroke-width="2" stroke-linecap="round" stroke-linejoin="round">
  <path d="M11.06 14.47 16 9.53" />
  <path d="m16 14.47-4.94-4.94" />
  <path d="M17 20.25a5 5 0 0 0 5-5v-6.5a5 5 0 0 0-5-5h-6.72a5 5 0 0 0-3.7 1.64L3.05 9.27a4 4 0 0 0 0 5.46l3.53 3.88a5 5 0 0 0 3.7 1.64z" />
</svg>
